X:518
T: Das Mdchen vom Lande (223), S. 406
N: T0406
O: Luxemburg
S: Singendes Volk, Esch-Alzette, 1937 posth.]
N: Junglinster, fff Sisy Minden, 27.12.1932
R: Berufslied]
M: 2/4
L: 1/16
K: G
D2 | G4B2G2 | E4A2
G2 | F4E2F2 | G4z2
D2 | G4B2G2 | E4A2
G2 | F4E2F2 | G4z2
D2 | G4G2D2 | A4A2
GB | d4dcB2 | A4z2
D2 | G4B2G2 | E4A2
G2 | F4E2F2 | G4z2
D2 | G2A2B2c2 | d2d2
e2c2 | c2c2d2c2 | B4z2
d2 | G2A2B2c2 | d2d2
e2c2 | c2c2d2c2 | B4z2

@@@ Tune index: 8572
